src/resources/assets/simulation.svg

<svg xmlns="http://www.w3.org/2000/svg" width="16" height="16"><path d="M 12.335938 13.851562 L 7.566406 13.851562 C 7.382812 14.234375 6.992188 14.5 6.539062 14.5 C 5.910156 14.5 5.398438 13.992188 5.398438 13.363281 C 5.398438 12.90625 5.667969 12.515625 6.054688 12.332031 L 6.054688 9.945312 L 3.667969 9.949219 C 3.496094 10.304688 3.144531 10.5625 2.730469 10.597656 L 2.636719 10.601562 C 2.007812 10.601562 1.5 10.089844 1.5 9.460938 C 1.5 9.007812 1.765625 8.617188 2.148438 8.433594 L 2.148438 3.664062 C 1.765625 3.484375 1.5 3.089844 1.5 2.636719 C 1.5 2.007812 2.011719 1.5 2.636719 1.5 C 3.089844 1.5 3.484375 1.765625 3.664062 2.148438 L 8.433594 2.148438 C 8.617188 1.765625 9.007812 1.5 9.460938 1.5 C 10.089844 1.5 10.601562 2.007812 10.601562 2.636719 C 10.601562 3.09375 10.332031 3.484375 9.949219 3.667969 L 9.945312 6.050781 L 12.332031 6.050781 C 12.503906 5.695312 12.855469 5.4375 13.269531 5.402344 L 13.363281 5.398438 C 13.992188 5.398438 14.5 5.910156 14.5 6.539062 C 14.5 6.992188 14.234375 7.382812 13.851562 7.566406 L 13.851562 12.335938 C 14.234375 12.519531 14.5 12.910156 14.5 13.363281 C 14.5 13.992188 13.992188 14.5 13.363281 14.5 C 12.910156 14.5 12.515625 14.234375 12.335938 13.851562 L 7.566406 13.851562 Z M 12.335938 7.027344 L 9.945312 7.027344 L 9.949219 8.429688 C 10.304688 8.601562 10.558594 8.953125 10.59375 9.367188 L 10.597656 9.460938 C 10.597656 10.085938 10.085938 10.597656 9.460938 10.597656 C 9.003906 10.597656 8.613281 10.332031 8.429688 9.949219 L 7.027344 9.945312 L 7.03125 12.335938 C 7.265625 12.449219 7.453125 12.640625 7.566406 12.875 L 12.335938 12.875 C 12.445312 12.636719 12.640625 12.445312 12.875 12.335938 L 12.875 7.566406 C 12.671875 7.46875 12.503906 7.316406 12.390625 7.125 Z M 8.972656 7.027344 L 7.5625 7.027344 C 7.453125 7.261719 7.261719 7.453125 7.03125 7.5625 L 7.027344 8.972656 L 8.429688 8.972656 C 8.542969 8.734375 8.734375 8.542969 8.972656 8.429688 Z M 8.433594 3.125 L 3.667969 3.125 C 3.554688 3.363281 3.363281 3.554688 3.125 3.664062 L 3.125 8.433594 C 3.359375 8.546875 3.550781 8.738281 3.664062 8.972656 L 6.054688 8.972656 L 6.054688 7.566406 C 5.695312 7.398438 5.4375 7.046875 5.402344 6.628906 L 5.398438 6.539062 C 5.398438 5.910156 5.910156 5.398438 6.539062 5.398438 C 6.992188 5.398438 7.386719 5.667969 7.566406 6.050781 L 8.972656 6.050781 L 8.972656 3.664062 C 8.769531 3.566406 8.601562 3.414062 8.488281 3.222656 Z M 8.433594 3.125" fill="#ddd"/></svg>

<svg xmlns="http://www.w3.org/2000/svg" width="16" height="16"><path d="M12.336 13.852h-4.77a1.14 1.14 0 01-2.168-.489c0-.457.27-.847.657-1.031V9.945l-2.387.004a1.155 1.155 0 01-.938.649l-.093.004a1.139 1.139 0 01-.489-2.168v-4.77a1.138 1.138 0 111.516-1.516h4.77a1.14 1.14 0 012.168.489c0 .457-.27.847-.653 1.031l-.004 2.383h2.387c.172-.356.523-.614.938-.649l.093-.004a1.139 1.139 0 01.489 2.168v4.77c.382.184.648.574.648 1.027 0 .63-.508 1.137-1.137 1.137-.453 0-.847-.266-1.027-.648h-4.77zm0-6.825h-2.39l.003 1.403c.356.172.61.523.645.937l.004.094a1.14 1.14 0 01-2.168.488l-1.403-.004.004 2.39c.235.114.422.306.535.54h4.77c.11-.238.305-.43.539-.54V7.567a1.127 1.127 0 01-.484-.441zm-3.363 0h-1.41c-.11.235-.301.426-.532.535l-.004 1.41H8.43c.113-.238.304-.429.543-.542zm-.54-3.902H3.669a1.12 1.12 0 01-.543.54v4.769c.234.113.426.304.54.539h2.39V7.566a1.14 1.14 0 01-.653-.937l-.004-.09a1.139 1.139 0 012.168-.488h1.407V3.664a1.127 1.127 0 01-.485-.441zm0 0" fill="#ddd"/></svg>
